!!!COM: Beethoven, Ludwig van
!!!CDT: 1770///-1827///
!!!OTL: Piano Sonata no. 1 in F minor
!!!ODT: 1794///-1795///
!!!ODE: Joseph Haydn
!!!OMD: Allegro
!!!OPS: 2
!!!ONM: 1
!!!OMV: 1
!!!AGN: Sonata Form
**kern	**kern	**dynam
*staff2	*staff1	*staff1/2
*Ipiano	*Ipiano	*Ipiano
*>[A,A,B,B]	*>[A,A,B,B]	*>[A,A,B,B]
*>norep[A,B]	*>norep[A,B]	*>norep[A,B]
*>A	*>A	*>A
*clefF4	*clefG2	*clefG2
*k[b-e-a-d-]	*k[b-e-a-d-]	*k[b-e-a-d-]
*f:	*f:	*f:
*M2/2	*M2/2	*M2/2
*MM240	*MM240	*MM240
!	!	!LO:DY:rj
4r	4c'	p
=1	=1	=1
1r	4f'	.
.	4a-'	.
.	4cc'	.
.	4ff'	.
=2	=2	=2
4r	(4.aa-	.
!	!	!LO:DY:b=2:rj
4F 4A- 4c	.	p
.	24ggLL	.
.	24ff	.
.	24eeJJ	.
4F 4A- 4c	4ff')	.
4F 4A- 4c	4r	.
=3	=3	=3
4E 4G 4B- 4c	4g'	.
4r	4cc'	.
2r	4ee'	.
.	4gg'	.
=4	=4	=4
4r	(4.bb-	.
4E 4G 4B- 4c	.	.
.	24aa-LL	.
.	24gg	.
.	24ffJJ	.
4E 4G 4B- 4c	4gg')	.
4E 4G 4B- 4c	4r	.
!!LO:LB:g=z
=5	=5	=5
.	(cc8q	.
!	!LO:DY:rj	!
4r	(4.aa-z)	.
4F 4A- 4c	.	.
.	24ggLL	.
.	24ff	.
.	24eeJJ	.
4F 4A- 4c	4ff')	.
4F 4A- 4c	4r	.
=6	=6	=6
.	(cc8q	.
!	!LO:DY:rj	!
4r	(4.bb-z)	<
4G 4B- 4e	.	.
.	24aa-LL	.
.	24gg	.
.	24ffJJ	.
4G 4B- 4e	4gg')	[
4G 4B- 4e	4r	.
=7	=7	=7
4r	2cc: 2ff: 2aa-: 2ccc:	ff
4A- 4c 4f	.	.
4r	(8bb-L	>
.	8aa-	.
4B- 4d- 4g	8gg	.
.	8ffJ)	]
=8	=8	=8
.	(16eenXqLL	.
.	16ffq	.
.	16ggqJJ	.
4r	(4ff)	p
4c 4g	4eenX)	.
4r;	4r;	.
!	!	!LO:DY:b=2:rj
4GG'	4r	p
=9	=9	=9
4C'\	1r	.
4E-X'	.	.
4G'	.	.
4c'	.	.
!!LO:LB:g=z
=10	=10	=10
(4.e-	1r	.
24dLL	.	.
24c	.	.
24BJJ	.	.
4c')	.	.
4c'	.	.
=11	=11	=11
*	*^	*
1c 1f	4raa	[1a-	.
.	8raa	.	.
.	(24ee-LL	.	.
.	24dd-X	.	.
.	24ccJJ)	.	.
.	4dd-'<	.	.
.	4dd-'<	.	.
=12	=12	=12	=12
1B- 1f	[1dd-	4.a-]	.
.	.	(24b-LL	.
.	.	24a-	.
.	.	24gJJ)	.
.	.	4a-'>	.
.	.	4a-'>	.
=13	=13	=13	=13
1B- 1e-	4.dd-]	1g	.
.	(24ee-LL	.	.
.	24dd-	.	.
.	24ccJJ)	.	.
.	4dd-'<	.	.
.	4dd-'<	.	.
=14	=14	=14	=14
1A- 1e-	4raa	1a-	.
.	8raa	.	.
.	(24dd-LL	.	.
.	24cc	.	.
.	24bJJ)	.	.
.	4cc'<	.	.
.	4cc'<	.	.
!!LO:LB:g=z
=15	=15	=15	=15
2d-	(4cc	1f	<
.	2b-	.	.
.	.	.	[ >
2d	.	.	.
.	4a-)	.	]
*	*v	*v	*
=16	=16	=16
4e-	4g'	.
4r	(4ee-	.
4r	4dd-)	.
4c (4e-	[4cc	.
=17	=17	=17
2d- 2f)	(4cc]	<
.	2b-	.
.	.	[ >
2d 2f	.	)
.	4a-\	]
=18	=18	=18
4e-	4g)	.
!	!	!LO:DY:rj
4r	(4e- 4ee-	f
4r	4d-X 4dd-X	.
4C (4E-	[4c) [4cc	.
=19	=19	=19
2D- 2F)	(4c] 4cc]	.
.	2B- 2b-	.
2D 2F	.	.
.	4A- 4a-	.
=20	=20	=20
8E-L	4G) 4g	.
8e-	.	.
8E-	4r	.
8e-J	.	.
8E-L	4r	.
8e-	.	.
!	!	!LO:DY:b:rj
8E-	(>4ff-	p
8e-J	.	.
!!LO:LB:g=z
=21	=21	=21
8E-L	4ee-	.
8e-	.	.
8E-	4dd-	.
8e-J	.	.
8E-L	4b-	.
8e-	.	.
8E-	4g)	.
8e-J	.	.
=22	=22	=22
*^	*	*
!	!	!LO:DY:rj	!
(2d-zy	4E-	(4.f-z	.
.	4E-	.	.
.	.	8e-	.
4c)	8E-L	4a-')	.
.	8e-	.	.
4ryy	8E-	(4ff-X	.
.	8e-J	.	.
*v	*v	*	*
=23	=23	=23
8E-L	4ee-	.
8e-	.	.
8E-	4dd-	.
8e-J	.	.
8E-L	4b-	.
8e-	.	.
8E-	4g)	.
8e-J	.	.
=24	=24	=24
*^	*	*
!	!	!LO:DY:rj	!
(2d-zy	4E-	(4.f-z	.
.	4E-	.	.
.	.	8e-	.
4c)	8E-L	4a-')	.
.	8e-	.	.
4ryy	8E-	(4ff-X	.
.	8e-J	.	.
*v	*v	*	*
=25	=25	=25
8E-L	4ee-	.
8e-	.	.
8E-	4dd-	.
8e-J	.	.
8d-L	4b-	.
8e-	.	.
8d-	4g)	.
8e-J	.	.
!!LO:LB:g=z
=26	=26	=26
8cL	8r	.
8e-	(8gL	.
8c	8b-	.
8e-J	8a-J)	.
8GL	8r	.
8e-	(8aL>	.
8G	8cc	.
8e-J	8b-J)	.
=27	=27	=27
8A-L	8r	.
8e-	(8bL	.
8A-	8dd-	.
8e-J	8ccJ)	.
8FL	8r	.
8d	(8ddL	<
8A-	8aa-	[ >
8dJ	8ddJ)	]
=28	=28	=28
8E-L	4ee-	.
8e-	.	.
8G	4r	.
8e-J	.	.
8FL	8r	.
8d	(8ddL	<
8A-	8aa-	[ >
8dJ	8ddJ)	]
=29	=29	=29
8E-L	4ee-	.
8e-	.	.
8G	4r	.
8e-J	.	.
8D-XL	8r	.
8B-	(8ggL	<
8F-	8fff-	[ >
8B-J	8ggJ)	]
=30	=30	=30
8CL	4aa-	.
8A-	.	.
8E-	4r	.
8A-J	.	.
8D-L	8r	.
8B-	(8ggL	<
8F-	8fff-	[ >
8B-J	8ggJ)	]
!!LO:PB:g=z
=31	=31	=31
8CL	8r	.
8A-	(8ggL	<
8E-	8bb-	.
8A-J	8aa-J)	.
8GGL	8r	.
8G	(8aaL	.
8E-	8ccc	.
8GJ	8bb-J)	.
=32	=32	=32
8AA-L	8r	.
8A-	(8bbL	.
8E-	8ddd-	.
8A-J	8cccJ)	.
8BB-L	8r	.
8B-	(8cccL	.
8E-	8eee-	.
8B-J	8ddd-J)	[[
=33	=33	=33
4C\	8r	.
.	(8dddL	f
!LO:DY:rj	!	!
2E-z	8fff	.
.	8eee-J	.
.	8ddd-L	.
.	8ccc	.
4A-	8bb-	.
.	8aa-J	.
=34	=34	=34
4D-	8ggL	.
.	8ff	.
!LO:DY:rj	!	!
2Fz	8ee-	.
.	8dd-J	.
.	8ccL<	.
.	8b-	.
4B-	8a-	.
.	8gJ)	.
=35	=35	=35
4E-	(8fL	p
.	8e-	.
!LO:DY:rj	!	!
2A-z	8d	.
.	8e-J	.
.	8dL	.
.	8e-	.
4c	8d	.
.	8e-J	.
!!LO:LB:g=z
=36	=36	=36
(4d-X	8dnL	.
.	8e-	.
4B-	8f	.
.	8e-J	.
4G	8dL	.
.	8e-	.
4D-)	8f	.
.	8e-J)	.
=37	=37	=37
4CC	8r	.
.	(8aa-L	f
!LO:DY:rj	!	!
2EE-z	8fff	.
.	8eee-J	.
.	8ddd-L	.
.	8ccc	.
4AA-	8bb-	.
.	8aa-J	.
=38	=38	=38
4DD-	8ggL	.
.	8ff	.
!LO:DY:rj	!	!
2FFz	8ee-	.
.	8dd-J	.
.	8ccL<	.
.	8b-	.
4BB-	8a-	.
.	8gJ	.
=39	=39	=39
4EE-	8fL	p
.	8e-	.
!LO:DY:rj	!	!
2AA-z	8d-	.
.	8cJ	.
*	*clefF4	*
.	8B-L	.
.	8A-	.
4C	8G	.
.	8FJ	.
=40	=40	=40
(4D-/	8E-L	.
.	8F	.
4BB-	8G	.
.	8A-J	.
4GG	8B-L	.
.	8c	.
4EE-)	8d-	.
.	8B-J	.
!!LO:LB:g=z
=41	=41	=41
4AA-	4A-)	.
*	*clefG2	*
4A-	4r	.
.	(d8qnX	.
!	!LO:TX:i:b:t=con espressione	!
4r	(4.cc-)	>
4D' 4F' 4A-' 4c-'	.	.
.	8b-)	]]
=42	=42	=42
4r	2a-	.
4E-' 4A-' 4cnX'	.	.
4r	(<4.g	.
4E-' 4B-' 4d-'	.	.
.	8ee-)	.
=43	=43	=43
4r	(4ee-z	.
4A-' 4c'	4a-\)	.
.	(d8q	.
4r	(4.cc-)	>
4D' 4F' 4A-' 4c-'	.	.
.	8b-)	]]
=44	=44	=44
4r	2a-	.
4E-' 4A-' 4cnX'	.	.
4r	(<4.g	.
4E-' 4B-' 4d-'	.	.
.	8ee-)	.
=45	=45	=45
4r	(4ee-z	.
4A-' 4c'	4a-\)	.
*clefG2	*	*
.	(ddnX8q	.
4r	(4.ccc-)	>
4d' 4f' 4a-' 4cc-'	.	.
.	8bb-)	]]
=46	=46	=46
4r	2aa-	.
4e-' 4a-' 4ccnX'	.	.
4r	(4.gg	.
4e-' 4b-' 4dd-'	.	.
.	8eee-)	.
=47	=47	=47
1A- 1B- 1d- 1e- 1g	1dd- 1gg 1eee-	ff >]
=48	=48	=48
4A- 4c 4e- 4a-	4cc 4ee- 4aa-	p
4r	4r	r
4r	4r	r
*clefF4	*	*
!!LO:LB:g=z
=:|!|:	=:|!|:	=:|!|:
*>B	*>B	*>B
4r	4e-'	p
=49	=49	=49
1r	4a-'\	.
.	4cc'	.
.	4ee-'	.
.	4aa-'	.
*clefF4	*	*
=50	=50	=50
4r	(4.ccc	.
4A- 4c 4e-	.	.
.	24bb-LL	.
.	24aa-	.
.	24ggJJ	.
4A- 4c 4e-	4aa-')	.
4A- 4c 4e-	4r	.
=51	=51	=51
.	(dd-8q	.
4r	(4.ddd-)	.
4G 4B- 4d- 4e-	.	.
.	24cccLL	.
.	24bb-	.
.	24aaJJ	.
4G 4B- 4d- 4e-	4bb-')	.
4G 4B- 4d- 4e-	4r	.
=52	=52	=52
1r	4b-'	.
.	4dd-'	.
.	4gg'	.
.	4bb-'	.
=53	=53	=53
.	(dd-8q	.
4r	(4.ddd-)	.
4G 4B- 4d- 4e	.	.
.	24cccLL	.
.	24bb-	.
.	24aaJJ	.
4G 4B- 4d- 4e	4bb-')	.
4G 4B- 4d- 4e	4r	.
!!LO:LB:g=z
=54	=54	=54
.	(dd-8q	.
4r	(4.ddd-)	<
4G- 4B- 4d- 4e	.	.
.	24cccLL	.
.	24bb-	.
.	24aaJJ	.
4G- 4B- 4d- 4e	4bb-')	[
4G- 4B- 4d- 4e	4r	.
=55	=55	=55
8FL	4aa	fp
8f	.	.
8F	4r	.
8fJ	.	.
8FL	4r	.
8f	.	.
8F	(4gg-	p
8fJ	.	.
=56	=56	=56
8FL	4ff	.
8f	.	.
8F	4ee-	.
8fJ	.	.
8FL	4cc	.
8f	.	.
8F	4a\)	.
8fJ	.	.
=57	=57	=57
*^	*	*
(2e-zy	4F	(4.g-z	.
.	4F	.	.
.	.	8f	.
4d-)	8FL	4b-'/)	.
.	8f	.	.
4ryy	8F	(4gg-X	.
.	8fJ	.	.
*v	*v	*	*
=58	=58	=58
8FL	4ff	.
8f	.	.
8F	4ee-	.
8fJ	.	.
8FL	4cc	.
8f	.	.
8F	4a\)	.
8fJ	.	.
!!LO:LB:g=z
=59	=59	=59
*^	*	*
(2e-zy	4F	(4.g-z	.
.	4F	.	.
.	.	8f	.
4d-)	8FL	4b-'/)	.
.	8f	.	.
4ryy	8F	(4gg-X	.
.	8fJ	.	.
*v	*v	*	*
=60	=60	=60
8FL	4ff	.
8f	.	.
8F	4ee-	.
8fJ	.	.
8e-L	4cc	.
8f	.	.
8e-	4a\)	.
8fJ	.	.
=61	=61	=61
8d-L	8r	<
8f	(8aL	.
8d-	8cc	.
8fJ	8b-J)	.
8cL	8r	.
8f	(8b-L	.
8c	8dd-	.
8fJ	8ccJ)	.
=62	=62	=62
8B-L	8r	.
8f	(8ccL	.
8B-	8ee-	.
8fJ	8dd-J)	.
8A-L	8r	.
8f#	(8bL	.
8A-	8dd	.
8f#J	8ccJ)	[
=63	=63	=63
8GL	4b	fp
8g	.	.
8G	4r	.
8gJ	.	.
8GL	4r	.
8g	.	.
8G	(4aa-	.
8gJ	.	.
!!LO:PB:g=z
=64	=64	=64
8GL	4gg	.
8g	.	.
8G	4ff	.
8gJ	.	.
8GL	4dd	.
8g	.	.
8G	4b)	.
8gJ	.	.
=65	=65	=65
*^	*	*
(2fzy	4G	(4.a-z	.
.	4G	.	.
.	.	8g	.
4e-)	8GL	4cc'/)	.
.	8g	.	.
4ryy	8G	(4aa-	.
.	8gJ	.	.
*v	*v	*	*
=66	=66	=66
8GL	4gg	.
8g	.	.
8G	4ff	.
8gJ	.	.
8GL	4dd	.
8g	.	.
8G	4b)	.
8gJ	.	.
=67	=67	=67
*^	*	*
(2fzy	4G	(4.a-z	.
.	4G	.	.
.	.	8g	.
4e-)	4G	4cc'/)	.
(>4A-	4ryy	8fL	.
.	.	8dJ	.
*v	*v	*	*
=68	=68	=68
4G	8fL	.
.	8d	.
4F	8f	.
.	8dJ	.
4D	8fL	.
.	8d	.
4BB)	8f	.
.	8dJ	.
!!LO:LB:g=z
=69	=69	=69
*	*^	*
!LO:DY:rj	!	!	!
(4.AA-z	4r	8fL	.
.	.	8d	.
.	(4b	8f	.
8GG	.	8dJ	.
4C')	4cc)	8e-L	.
.	.	8c	.
(4G-	4rdd	8e-	.
.	.	8cJ	.
=70	=70	=70	=70
4F	1rdd	8e-L	.
.	.	8c	.
4E-	.	8e-	.
.	.	8cJ	.
4C	.	8e-L	.
.	.	8c	.
4AA)	.	8e-	.
.	.	8cJ	.
=71	=71	=71	=71
!LO:DY:rj	!	!	!
(4.GG-z	4rdd	8e-L	.
.	.	8c	.
.	(4a	8e-	.
8FF	.	8cJ	.
4BB-')	4b-)	8d-XL	.
.	.	8B-	.
(4F-	4rdd	8d-	.
.	.	8B-J	.
=72	=72	=72	=72
4E-	1rdd	8d-L	.
.	.	8B-	.
4D-	.	8d-	.
.	.	8B-J	.
4BB-	.	8d-L	.
.	.	8B-	.
4GG)	.	8d-	.
.	.	8B-J	.
=73	=73	=73	=73
(4FF-	2r	8d-L	.
.	.	8B-	.
2EE-)	.	8d-	.
.	.	8B-J	.
!	!LO:DY:rj	!	!
.	2gz	8d-L	.
.	.	8B-	.
!LO:DY:rj	!	!	!
[4E-z	.	8d-	.
.	.	8B-J	.
!!LO:LB:g=z
=74	=74	=74	=74
4E-]	2r	8cL	.
.	.	8A-	.
2C\	.	8e-	.
.	.	8A-J	.
!	!LO:DY:rj	!	!
.	2a-z	8e-L	.
.	.	8A-	.
[4CC	.	8e-	.
.	.	8A-J	.
=75	=75	=75	=75
4CC]	2r	8d-L	.
.	.	8A-	.
2DD-	.	8d-	.
.	.	8A-J	.
!	!LO:DY:rj	!	!
.	2fz	8d-L	.
.	.	8A-	.
!LO:DY:rj	!	!	!
[4D-/z	.	8d-	.
.	.	8A-J	.
=76	=76	=76	=76
4D-/]	2r	8d-L	.
.	.	8G	.
2BB-	.	8d-	.
.	.	8GJ	.
!	!LO:DY:rj	!	!
.	2gz	8d-L	.
.	.	8G	.
[4BBB-	.	8d-	.
.	.	8GJ	.
=77	=77	=77	=77
4BBB-]	2r	8cL	.
.	.	8G	.
2CC	.	8c	.
.	.	8GJ	.
!	!LO:DY:rj	!	!
.	2enz	8cL	.
.	.	8G	.
!LO:DY:rj	!	!	!
[4Cz	.	8c	.
.	.	8GJ	.
=78	=78	=78	=78
4C]	2r	8A-L	.
.	.	8F	.
2AA-	.	8c	.
.	.	8FJ	.
!	!LO:DY:rj	!	!
.	2fz	8cL	.
.	.	8F	.
4AAA-	.	8c	.
.	.	8FJ	.
!!LO:LB:g=z
=79	=79	=79	=79
4r	2r	8d-L	.
.	.	8F	.
(2BBB-	.	8d-	.
.	.	8FJ	.
!	!LO:DY:rj	!	!
.	2fz	8d-L	.
.	.	8F	.
4BB-)	.	8d-	.
.	.	8FJ	.
*	*v	*v	*
=80	=80	=80
4r	8dL	.
.	8F	.
(2BBBn	8A- 8d 8f	.
.	8FJ	.
.	8A- 8d 8fL	.
.	8F	.
4BBnX)	8A- 8d 8f	.
.	8FJ	.
=81	=81	=81
8CCL	4G 4c 4e	.
8C	.	.
8E	4r	.
8CJ	.	.
8EL>	4r	.
8C	.	.
8E	(4cc	.
8CJ	.	.
=82	=82	=82
8FL	4a-'\)	.
8C	.	.
8F	4r	.
8CJ	.	.
8FL	4r	.
8C	.	.
8A-	(4ff	.
8CJ	.	.
=83	=83	=83
8GL	4ee')	.
8C	.	.
8G	4r	.
8CJ	.	.
8GL	4r	.
8C	.	.
8B-	(4ccc	.
8CJ	.	.
!!LO:LB:g=z
=84	=84	=84
8A-L	4ff')	.
8C	.	.
8c	4r	.
8CJ	.	.
!	!LO:DY:rj	!
8BL	2ffz (2fffz	.
8C	.	.
8d	.	.
8CJ	.	.
=85	=85	=85
8cL	4ee 4eee)	.
8C	.	.
8E	4r	.
8CJ	.	.
8EL	4r	.
8C	.	.
8E	(4cct	.
8CJ	.	.
.	16bnqLL	.
.	16ccqJJ	.
=86	=86	=86
8FL	4a-')	.
8C	.	.
8F	4a-'	.
8CJ	.	.
8FL	4r	.
8C	.	.
8A-	(4ffT	.
8CJ	.	.
.	16eenqLL	.
.	16ffqJJ	.
=87	=87	=87
8GL	4een')	.
8C	.	.
8G	4ee'	.
8CJ	.	.
8GL	4r	.
8C	.	.
8B-	(4ccct	.
8CJ	.	.
.	16bbnqLL	.
.	16cccqJJ	.
=88	=88	=88
8A-L	4ff')	.
8C	.	.
8c	4ff'	.
8CJ	.	.
8BL	4r	.
8C	.	.
!	!LO:DY:rj	!
8d	4ffz (4fffz	.
8CJ	.	.
!!LO:LB:g=z
=89	=89	=89
8cL	4ee' 4eee')	.
8C	.	.
8c	4ee' 4eee'	.
8CJ	.	.
8B-XL	4r	.
8C	.	.
8B-	4dd-X (4ddd-X	.
8CJ	.	.
=90	=90	=90
8A-L	4cc' 4ccc')	>
8C	.	.
8c	4cc' 4ccc'	.
8CJ	.	.
8BL	4r	.
8C	.	.
8d	4ff (4fff	.
8CJ	.	.
=91	=91	=91
8cL	4ee' 4eee')	.
8C	.	.
8c	4ee' 4eee'	.
8CJ	.	.
8B-XL	4r	.
8C	.	.
8B-	4dd- (4ddd-	.
8CJ	.	.
=92	=92	=92
8A-L	4cc' 4ccc')	.
8C	.	.
8c	4cc' 4ccc'	.
8CJ	.	.
8BL	4r	.
8C	.	.
8d	4ff (4fff	.
8CJ	.	.
=93	=93	=93
(4c'	4ee' 4eee')	pp
4c'	4r	.
4c'	2r	.
4c')	.	.
!!LO:PB:g=z
=94	=94	=94
(4c'	1r	.
4c'	.	.
4c'	.	.
4c')	.	.
=95	=95	=95
4c' (4d-'	4r	.
4c' 4d-'	8r	.
!	!	!LO:DY:a
.	(24a-LL	pp
.	24g-	.
.	24fJJ	.
4c' 4d-'	4g-')	.
4c' 4d-')	4r	.
=96	=96	=96
4B-' (4d-'	4r	.
4B-' 4d-'	8r	.
.	(24eee-LL	.
.	24ddd-	.
.	24cccJJ	.
4B-' 4d-'	4ddd-')	.
4B-' 4d-')	4r	.
=97	=97	=97
!	!	!LO:HP:dash
4B-' (4c'	4r	<
4B-' 4c'	8r	.
.	(24fLL	.
.	24e	.
.	24dJJ	.
4B-' 4c'	4e')	.
4B-' 4c')	4r	.
=98	=98	=98
4A-' (4c'	4r	.
4A-' 4c'	8r	.
.	(24ddd-LL	.
.	24ccc	.
.	24bbJJ	.
4A-' 4c'	4ccc')	.
4A-' 4c')	4r	.
!!LO:LB:g=z
=99	=99	=99
4A-' (4B-'	4r	.
4A-' 4B-'	8r	.
.	(24e-LL	.
.	24d	.
.	24cJJ	.
4A-' 4B-'	4d')	.
4A-' 4B-')	4r	.
=100	=100	=100
4G' 4B-' (4e'	4r	.
4G' 4B-' 4e'	8r	.
.	(24cccLL	.
.	24bb-	.
.	24aaJJ	.
4G' 4B-' 4e'	4bb-')	.
4G' 4B-' 4e')	4r	.
=101	=101	=101
4F 4A- 4c	4f'	f
4r	4a-'	.
2r	4cc'	.
.	4ff'	.
=102	=102	=102
4r	(4.aa-z	.
4F 4A- 4c	.	.
.	24ggLL	.
.	24ff	.
.	24eeJJ	.
4F 4A- 4c	4ff')	.
4F 4A- 4c	4r	.
=103	=103	=103
4E 4G 4B- 4c	4g'	.
4r	4cc'	.
2r	4ee'	.
.	4gg'	.
!!LO:LB:g=z
=104	=104	=104
4r	(4.bb-z	.
4E 4G 4B- 4c	.	.
.	24aa-LL	.
.	24gg	.
.	24ffJJ	.
4E 4G 4B- 4c	4gg')	.
4E 4G 4B- 4c	4r	.
=105	=105	=105
.	(cc8q	.
2Fzy 2A-zy 2czy	(4.aa-z)	.
.	24ggLL	.
.	24ff	.
.	24eeJJ	.
2r	4ff')	.
.	4r	.
=106	=106	=106
.	(cc8q	.
2Gzy 2B-zy 2ezy	(4.bb-z)	.
.	24aa-LL	.
.	24gg	.
.	24ffJJ	.
2r	4gg')	.
.	4r	.
=107	=107	=107
4A- 4c 4f	2cc: 2ff: 2aa-: 2ccc:	ff
4r	.	.
4B- 4d- 4g	(8bb-L	>
.	8aa-	)
4r	8gg	)
.	8ffJ)	]
=108	=108	=108
.	(16eeqLL	.
.	16ffq	.
.	16ggqJJ	.
!	!	!LO:DY:rj
4c 4g	(4ff)	p
4r	4eenX)	.
4r;	4r;	r
!	!	!LO:DY:b=2
4C'	4r	p
!!LO:LB:g=z
=109	=109	=109
4F'	1r	.
4A-'	.	.
4c'	.	.
4f'	.	.
*clefG2	*	*
=110	=110	=110
(4.a-	1r	.
24gLL	.	.
24f	.	.
24eJJ	.	.
4f')	.	.
4f'	.	.
=111	=111	=111
1f 1g-	(4.bb-	.
.	24aa-LL	.
.	24gg-	.
.	24ffJJ	.
.	4gg-')	.
.	4gg-'	.
=112	=112	=112
*	*^	*
1e- 1g-	[1gg-	4rg	.
.	.	8rg	.
.	.	(24dd-XLL	.
.	.	24cc	.
.	.	24bJJ)	.
.	.	4cc'>	.
.	.	4cc'>	.
=113	=113	=113	=113
1e- 1a	4.gg-X]	[1cc	.
.	(24gg-yLL	.	.
.	24ff	.	.
.	24eeJJ	.	.
.	4ff'<)	.	.
.	4ff'<	.	.
=114	=114	=114	=114
1d- 1f	1ff	4.cc]	.
.	.	(24ccLL	.
.	.	24b-	.
.	.	24aJJ)	.
.	.	4b-'>	.
.	.	4b-'>	.
!!LO:LB:g=z
=115	=115	=115	=115
*^	*	*	*
(2.f	[1d	4raa	1b	.
.	.	8raa	.	.
.	.	(24ggLL	.	.
.	.	24ff	.	.
.	.	24eeJJ)	.	.
.	.	(4ff	.	.
4e)	.	4gg	.	.
*	*	*v	*v	*
=116	=116	=116	=116
(4f	1dnX]	4aa-	.
4g	.	4ee	.
4a-	.	4ff	.
4f)	.	4b)	.
=117	=117	=117	=117
(4e	[1c	(>4cc	<
4g	.	4ee	.
4f	.	4ff	.
4e	.	4gg	[
=118	=118	=118	=118
4f	2c]	4aa-	>
4b-	.	4ee	)
4a-	2d-X	4ff	)
4f)	.	4b	]
*v	*v	*	*
*clefF4	*	*
=119	=119	=119
8CL	4e 4cc)	.
8c	.	.
8C	4r	.
8cJ	.	.
8CL	4r	.
8c	.	.
8C	(>4dd-	p
8cJ	.	.
!!LO:LB:g=z
=120	=120	=120
8CL	4cc	.
8c	.	.
8C	4b-	.
8cJ	.	.
8CL	4g	.
8c	.	.
8C	4e)	.
8cJ	.	.
=121	=121	=121
*^	*	*
(2B-	4C	(4.d-	sf
.	4C	.	.
.	.	8c	.
4A-)	8CL	4f')	.
.	8c	.	.
4ryy	8C	(4ddd-	.
.	8cJ	.	.
*v	*v	*	*
=122	=122	=122
8CL	4ccc	.
8c	.	.
8C	4bb-	.
8cJ	.	.
8CL	4gg	.
8c	.	.
8C	4ee)	.
8cJ	.	.
=123	=123	=123
*^	*	*
(2B-	4C	(4.dd-	sf
.	4C	.	.
.	.	8cc	.
4A-)	8CL	4ff')	.
.	8c	.	.
4ryy	8C	(4ddd-	.
.	8cJ	.	.
*v	*v	*	*
=124	=124	=124
8CL	4ccc	.
8c	.	.
8C	4bb-	.
8cJ	.	.
8B-L	4gg	.
8c	.	.
8B-	4ee)	.
8cJ	.	.
!!LO:LB:g=z
=125	=125	=125
8A-L	8r	.
8f	(8eeL	.
8c	8gg	.
8fJ	8ffJ)	.
8GL	8r	.
8e	(8ffL	.
8B-	8aa-	.
8eJ	8ggJ)	.
=126	=126	=126
8FL	8r	.
8c	(8ggL	.
8A-	8bb-	.
8cJ	8aa-J)	.
8D-L	8r	.
8B	(8bbL	<
8F	8fff	[ >
8BJ	8bbJ)	]
=127	=127	=127
8CL	4ccc	.
8c	.	.
8E	4r	.
8cJ	.	.
8D-L	8r	.
8B	(8bbL	<
8F	8fff	[ >
8BJ	8bbJ)	]
=128	=128	=128
8CL	4ccc	.
8c	.	.
8E	4r	.
8cJ	.	.
8BB-XL	8r	.
8G	(8eeL	<
8D-	8ddd-	[ >
8GJ	8eeJ)	]
=129	=129	=129
8AA-L	4ff	.
8F	.	.
8C	4r	.
8FJ	.	.
8BB-L	8r	.
8G	(8eeL	<
8D-	8ddd-	[ >
8GJ	8eeJ)	]
!!LO:PB:g=z
=130	=130	=130
8AA-L	8r	.
!	!	!LO:HP:Y=40:dash
8F	(8eeL	<
8C	8gg	.
8FJ	8ffJ)	.
8EEL	8r	.
8E	(8ffL	.
8C	8aa-	.
8EJ	8ggJ)	.
=131	=131	=131
8FFL	8r	.
8F	(8ggL	.
8C	8bb-	.
8FJ	8aa-J)	.
8GGL>	8r	.
8G	(8aaL	.
8C	8ccc	.
8GJ	8bb-J)	.
=132	=132	=132
!	!	!LO:DY:t=%s sempre legato
4AA-	8r	ff
.	(8cccL	.
!LO:DY:rj	!	!
2Cz	8fff	.
.	8eee-J	.
.	8ddd-L	.
.	8ccc	.
4F	8bb-	.
.	8aa-J	.
=133	=133	=133
4BB-	8ggL	.
.	8ff	.
!LO:DY:rj	!	!
2D-z	8ee-	.
.	8dd-J	.
.	8ccL<	.
.	8b-	.
4G	8a-	.
.	8gJ)	.
=134	=134	=134
4C\	(>8fL	.
.	8e	.
!LO:DY:rj	!	!
2Fz	8d-	.
.	8cJ	.
.	8BL	.
.	8c	.
4A-	8B	.
.	8cJ	.
!!LO:LB:g=z
=135	=135	=135
!	!	!LO:DY:rj
(4B-	8BL	pp
.	8c	.
4G	8d-	.
.	8cJ	.
4E	8BL	.
.	8c	.
4BB-)	8d-	.
.	8cJ)	.
=136	=136	=136
4AA-	8r	.
!	!	!LO:DY:rj
.	(8cccL	ff
!LO:DY:rj	!	!
2Cz	8fff	.
.	8eee-J	.
.	8ddd-L	.
.	8ccc	.
4F	8bb-	.
.	8aa-J	.
=137	=137	=137
4BB-	8ggL	.
.	8ff	.
!LO:DY:rj	!	!
2D-/z	8ee-	.
.	8dd-J	.
.	8ccL	.
.	8b-	.
4G	8a-	.
.	8gJ	.
=138	=138	=138
4C\	8fL	.
.	8e	.
!LO:DY:rj	!	!
2Fz	8d-	.
.	8cJ	.
.	8BL	.
.	8c	.
4A-	8B	.
.	8cJ)	.
=139	=139	=139
4r	(>8BL	p
.	8c	.
4CC	8d-	.
.	8cJ	.
4CC	8cL	.
!	!S-	!
.	8B-<	.
4CC/	8A-<	.
.	8G<J	.
!!LO:LB:g=z
=140	=140	=140
4FF	4F<)	.
!	!S0	!
4F	4r	.
.	(B8q	.
!	!LO:TX:i:b:t=con espress.:Y=20:X=30	!
4r	(4.a-)	.
4D-' 4F' 4A-' 4B'	.	.
.	8g	.
=141	=141	=141
4r	2f)	.
4C' 4F' 4A-' 4c'	.	.
4r	(<4.e	.
4C' 4G' 4B-X'	.	.
.	8cc)	.
=142	=142	=142
4r	(4ccz	.
4F' 4A-'	4f)	.
.	(B8q	.
4r	(4.a-)	>yy
4D-' 4F' 4A-' 4B'	.	)
.	8g	]yy
=143	=143	=143
4r	2f)	.
4C' 4F' 4A-' 4c'	.	.
4r	(<4.en	.
4C' 4G' 4B-X'	.	.
.	8cc)	.
=144	=144	=144
4r	(4ccz	.
4F' 4A-'	4f)	.
*clefG2	*	*
.	(b8q	.
4r	(4.aa-)	.
4d-' 4f' 4a-' 4b'	.	.
.	8gg	.
=145	=145	=145
4r	2ff)	.
4c' 4f' 4a-' 4cc'	.	.
4r	(4.ee	.
*clefF4	*	*
4B-' 4c' 4g'	.	.
.	8ccc)	.
!!LO:LB:g=z
=146	=146	=146
(<1A 1c 1f	1cc 1ee-X (1ccc	ff
=147	=147	=147
4B-) 4d- 4f	4b- 4dd- 4ff)	.
4r	4r	.
4r	4r	.
8r	8r	.
8B- 8d- 8f	8b- 8dd- 8bb-	.
=148	=148	=148
(<1G 1B- 1e-	1b- 1dd- (1bb-	ff
=149	=149	=149
4A-) 4c 4e-	4a- 4cc 4ee-)	.
4r	4r	.
4r	4r	.
!	!	!LO:DY:rj
4F' 4d-'	4a-' 4cc' 4aa-'	sf
=150	=150	=150
4G' 4d-'	4g' 4b-' 4dd-'	.
!	!	!LO:DY:rj
4E' 4c'	4g' 4b-' 4gg'	sf
4F' 4c'	4f' 4a-' 4cc'	.
!	!	!LO:DY:rj
4D-' 4d-'	4f' 4a-' 4ff'	sf
=151	=151	=151
4BB-' 4D-' 4G' 4B-'	4f' 4g' 4dd-' 4ff'	ff
4r	4r	.
4C' 4E' 4G' 4c'	4e'\ 4g'\ 4b-'\ 4cc'\ 4ee'\	.
4r	4r	.
=152	=152	=152
4FF' 4AA-' 4C' 4F'	4f' 4a-' 4cc' 4ff'	.
4r	4r	.
4r	4r	.
==:|!	==:|!	==:|!
*-	*-	*-
!!!RDF**kern: > = above
!!!RDF**kern: < = below
!!!LOR: Durand 1915, plates 9327/9328, Paul Dukas, ed.
!!!URL-vhv: https://verovio.humdrum.org/?file=beethoven/sonatas/sonata01-1.krn
!!!URL-pdf: https://github.com/craigsapp/beethoven-piano-sonatas/blob/master/reference-edition/sonata01-1.pdf
!!!ENC: Craig Stuart Sapp
!!!END: 2004/04/05
!!!EED: Craig Stuart Sapp
!!!EEV: 2021/10/01